X:1
T:Tristicia vestra
T:Tristitia vestra
T:Heinrich Isaac
T:Source : Trium vocum cantiones---Nürnberg---J.Petreius---1541. Editor : André Vierendeels (30/08/15).
T:Notes : Original clefs : C1, C3, C4 Editorial accidentals above the staff Original note values have been halved Square brackets indicate ligatures
C:Heinrich Isaac
%%score [ 1 [ 2 3 ] ]
L:1/8
Q:1/4=80
M:2/2
K:C
V:1 treble nm="Discantus" snm="D"
V:2 treble-8 nm="Tenor 1" snm="T 1"
V:3 treble-8 nm="Tenor 2" snm="T 2"
V:1
 z8 | G4 G2 G2 | c6 B2 | A4 G4 | F4 G2 A2- | AG G4 F2 | G3 A Bc d2- | dc c4 B2 | c8 | z4 c4 | B8 | %11
w: |Tri- sti- ti-|a _|_ _|ve- * *||||stra,|tri-|sti-|
 A8 | G6 F2 | E4 C4 | D8 | C4 G4 | B6 c2 | d8 | z4 c4 | B2 A4 GF | E4 z4 | e4 e4- | e4 d4 | B4 c4 | %24
w: ti-|a _|_ _|ve-|stra ver-|te- *|tur,|ver-|te- * * *|tur,|ver- te-|* tur|in gau-|
 c4 B4- | B4 z4 | B4 c4- | c2 BA G2 A2- | A2 GF GFED | E4 D4 | z2 G2 A4 | c4 B4- | B4 A4 | %33
w: di- um,|_|in gau-|* * * * di-||* um,|ver- te-|* tur|_ in|
 B2 d4 cB | cBAG F2 G2- |"^#" G2 F2 G4- | G8 |] %37
w: gau- * * *||* di- um.|_|
V:2
 G4 G2 G2 | c6 B2 | A4 G4 | F4 GABc | d3 c BA c2 | G2 B2 A4 | G2 g3 f d2 | e3 f d4 | c4 z2 A2 | %9
w: Tri- sti- ti-|a _|_ _|ve- * * * *|||stra, ve- * *||stra, tri-|
 ABcd e2 f2 | g2 GA Bcde | f6 ed | e4 d4- | d2 c2 c4- | c2 BA B4 | c2 c2 cdef | g6 fe | d8 | %18
w: sti- * * * * ti-|a ve- * * * * *|||||stra, ve- stra, _ _ _|_ _ _||
 z2 g4 fe | f4 g4 | z2 g2 a4- | a2 gf e3 f | g2 a2 d4 | z2 g4 fe | f4 g4- | g2 fe d2 c2 | d4 c4- | %27
w: ve- * *|* stra|ver- te-||* * tur|[in _ ]|gau- *|||
 c2 d2 e2 f2- | f2 ed ed d2- | d2 c2 defg | a2 g4 fe | f2 f2 g4 | z2 g2 f3 e | d4 g3 f | %34
w: ||||* di- um,|ver- te- tur|in gau- *|
 edcB d2 cB | A2 A2 G4- | G8 |] %37
w: |* di- um.|_|
V:3
"^#" z8 | z8 | z8 | z8 | z8 | z8 | G8 | G8 | c8 | A8 | G8 | F8 | G8 | A8 | G8 | z8 | z8 | z4 G4 | %18
w: ||||||Tri-|sti-||ti-||a|ve-||stra|||ver-|
 B4 c4 | d4 c4- | c4 A4- | A4 c4- | c4 B4 | G4 A4- | A4 G4- | G8- | G4 z4 | z8 | z8 |"^b" A4 B4 | %30
w: te- *|* tur|_ in|_ gau-|* di-||* um|_||||ver- te-|
"^#" c4 A4- | A4 G4 | E4 F4 | G4 E4- | E4 D4- | D4 G4- | G8 |] %37
w: * tur|_ in|_ gau-|* di-||* um.|_|

